img/svg/icon-font/gmo.svg

<svg width="22" height="22" viewBox="0 0 22 22" fill="none" xmlns="http://www.w3.org/2000/svg">
<path fill-rule="evenodd" clip-rule="evenodd" d="M3.89241 18.3477H15.8125C16.2871 18.3477 16.6719 18.7324 16.6719 19.207C16.6719 19.6817 16.2871 20.0664 15.8125 20.0664H3.49834C3.45864 20.4092 3.4375 20.7665 3.4375 21.1406C3.4375 21.6153 3.05276 22 2.57812 22C2.10349 22 1.71875 21.6153 1.71875 21.1406C1.71875 18.363 2.66393 16.086 4.60831 14.1796C5.90812 12.9052 7.52937 11.9127 9.18719 11.0006C7.55786 10.1065 5.86382 9.07814 4.52182 7.73459C2.63566 5.84629 1.71875 3.59739 1.71875 0.859375C1.71875 0.384742 2.10349 0 2.57812 0C3.05276 0 3.4375 0.384742 3.4375 0.859375C3.4375 5.90593 7.24878 8.02317 11 10.0259C12.5624 9.19076 14.0736 8.35772 15.3292 7.34766H9.625C9.15037 7.34766 8.76562 6.96291 8.76562 6.48828C8.76562 6.01365 9.15037 5.62891 9.625 5.62891H17.032C17.4712 5.04943 17.8313 4.41091 18.0917 3.69531H6.1875C5.71287 3.69531 5.32812 3.31057 5.32812 2.83594C5.32812 2.3613 5.71287 1.97656 6.1875 1.97656H18.4969C18.5399 1.62082 18.5625 1.2491 18.5625 0.859375C18.5625 0.384742 18.9472 0 19.4219 0C19.8965 0 20.2812 0.384742 20.2812 0.859375C20.2812 3.637 19.3361 5.91396 17.3917 7.82031C15.7243 9.45502 13.5282 10.626 11.4043 11.7583C9.67725 12.6791 7.9906 13.5784 6.61714 14.6953H12.5039C12.9785 14.6953 13.3633 15.0801 13.3633 15.5547C13.3633 16.0293 12.9785 16.4141 12.5039 16.4141H4.93586C4.50252 16.9938 4.14764 17.6322 3.89241 18.3477ZM13.6278 12.4372C13.8839 12.0374 14.4153 11.921 14.815 12.1769C17.36 13.8067 20.2813 16.2984 20.2813 21.1406C20.2813 21.6152 19.8965 22 19.4219 22C18.9473 22 18.5625 21.6152 18.5625 21.1406C18.5625 17.1551 16.1996 15.1045 13.8881 13.6243C13.4884 13.3684 13.3719 12.8369 13.6278 12.4372Z" fill="#4C51CB"/>
</svg>

<svg width="22" height="22" fill="none" xmlns="http://www.w3.org/2000/svg"><path fill-rule="evenodd" clip-rule="evenodd" d="M3.892 18.348h11.92a.86.86 0 110 1.718H3.498c-.04.343-.06.7-.06 1.075a.86.86 0 11-1.72 0c0-2.778.946-5.055 2.89-6.961 1.3-1.275 2.921-2.267 4.58-3.18-1.63-.893-3.324-1.922-4.666-3.265C2.636 5.846 1.719 3.597 1.719.859a.86.86 0 111.718 0c0 5.047 3.812 7.164 7.563 9.167 1.562-.835 3.074-1.668 4.33-2.678H9.624a.86.86 0 110-1.72h7.407c.44-.579.8-1.217 1.06-1.933H6.188a.86.86 0 110-1.718h12.309a9.31 9.31 0 00.066-1.118.86.86 0 111.718 0c0 2.778-.945 5.055-2.89 6.961-1.667 1.635-3.863 2.806-5.987 3.938-1.727.921-3.413 1.82-4.787 2.937h5.887a.86.86 0 010 1.72H4.936a7.314 7.314 0 00-1.044 1.933zm9.736-5.91a.86.86 0 011.187-.261c2.545 1.63 5.466 4.121 5.466 8.964a.86.86 0 01-1.718 0c0-3.986-2.363-6.036-4.675-7.517a.86.86 0 01-.26-1.187z" fill="#4C51CB"/></svg>
